src/sources/forus-platform/resources/_platform-common/assets/img/features/icons/email-connection/icon-1.svg

<svg width="59" height="58" viewBox="0 0 59 58" fill="none" xmlns="http://www.w3.org/2000/svg">
    <rect x="0.5" width="58" height="58" rx="8" fill="#F7F9FC"/>
    <path d="M24.645 32.0411L20.841 29.8276C20.6445 29.7156 20.4271 29.6443 20.202 29.6182C19.9769 29.592 19.7488 29.6115 19.5315 29.6755C19.3142 29.7395 19.1123 29.8466 18.9381 29.9904C18.7638 30.1341 18.6209 30.3115 18.5179 30.5118C18.514 30.5189 18.5123 30.5272 18.509 30.5349L16.9324 24.7098C16.8274 24.2872 16.5646 23.9199 16.1972 23.6819C15.8297 23.444 15.3849 23.3531 14.9526 23.4276C14.7305 23.4736 14.5202 23.5641 14.3346 23.6934C14.149 23.8227 13.9919 23.9882 13.8729 24.1798C13.7539 24.3714 13.6756 24.585 13.6427 24.8076C13.6097 25.0302 13.6229 25.2571 13.6814 25.4745L16.0958 34.4069C16.212 34.8364 16.4563 35.221 16.7967 35.5104L19.3907 37.7173C19.6347 37.9246 19.8305 38.1819 19.9646 38.4714C20.0988 38.761 20.1681 39.0759 20.1679 39.3945V40.5862H26.8435V35.848C26.8435 35.0785 26.6406 34.3223 26.2549 33.6545C25.8693 32.9867 25.3143 32.4305 24.645 32.0411Z" fill="#E6ECFF"/>
    <path d="M44.2972 23.4276C43.8649 23.3531 43.4202 23.4439 43.0527 23.6818C42.6853 23.9196 42.4225 24.2868 42.3173 24.7093L40.7407 30.535C40.7374 30.5272 40.7357 30.519 40.7318 30.5118C40.6289 30.3115 40.4859 30.1342 40.3116 29.9904C40.1374 29.8467 39.9355 29.7395 39.7182 29.6756C39.501 29.6116 39.2729 29.5921 39.0477 29.6182C38.8226 29.6443 38.6052 29.7156 38.4087 29.8276L34.6048 32.0412C33.9355 32.4306 33.3805 32.9867 32.9948 33.6545C32.6092 34.3223 32.4063 35.0785 32.4062 35.8481V40.5863H39.0819V39.3945C39.0818 39.0758 39.1514 38.7608 39.2859 38.4712C39.4203 38.1817 39.6164 37.9245 39.8607 37.7173L42.4547 35.5104C42.7951 35.221 43.0394 34.8364 43.1557 34.407L45.5683 25.4745C45.6268 25.2572 45.64 25.0302 45.6071 24.8076C45.5742 24.585 45.4958 24.3714 45.3768 24.1798C45.2579 23.9883 45.1008 23.8228 44.9151 23.6934C44.7295 23.5641 44.5192 23.4737 44.2972 23.4276Z" fill="#E6ECFF"/>
    <path d="M30.7373 40.5862V45H40.7507V40.5862H39.0818H32.4062H30.7373Z" fill="#305DFC"/>
    <path d="M18.499 40.5862V45H28.5124V40.5862H26.8435H20.1679H18.499Z" fill="#305DFC"/>
    <path d="M37.9693 13V19.9517C37.9686 22.352 37.3104 24.7071 36.0651 26.7652C34.8197 28.8234 33.034 30.5074 30.8987 31.6372L29.6248 32.3103L28.3509 31.6372C26.2155 30.5074 24.4298 28.8234 23.1845 26.7652C21.9392 24.7071 21.281 22.352 21.2803 19.9517V13L22.0702 13.4469C23.0244 13.9874 24.0982 14.2863 25.1966 14.3171C26.295 14.3479 27.3841 14.1097 28.3675 13.6234L29.6248 13L30.882 13.6234C31.8644 14.1097 32.9527 14.348 34.0502 14.3172C35.1478 14.2864 36.2207 13.9875 37.1738 13.4469L37.9693 13Z" fill="#305DFC"/>
    <path d="M33.8647 16.531C32.4838 16.5293 31.122 16.2105 29.8861 15.5997L29.6252 15.4673L29.3682 15.5953C28.1311 16.2069 26.7679 16.5261 25.3856 16.5277C24.7537 16.5277 24.1235 16.461 23.5059 16.3285V19.9517C23.5036 21.9521 24.0508 23.9154 25.0886 25.6308C26.1264 27.3461 27.6157 28.7487 29.3965 29.688L29.6252 29.8088L29.8544 29.688C31.635 28.7485 33.1241 27.3458 34.1618 25.6305C35.1995 23.9152 35.7466 21.952 35.7445 19.9517V16.3291C35.1269 16.4623 34.4968 16.53 33.8647 16.531Z" fill="#0A33C1"/>
    <path d="M33.8639 16.531C33.7487 16.531 33.6336 16.515 33.5184 16.5106V19.9517C33.5198 21.7781 33.0628 23.5762 32.1888 25.1838C31.3148 26.7914 30.0511 28.1581 28.5117 29.1605C28.7977 29.347 29.0897 29.5263 29.3957 29.688L29.6243 29.8088L29.8535 29.688C31.6342 28.7485 33.1232 27.3458 34.1609 25.6305C35.1986 23.9152 35.7458 21.9521 35.7436 19.9517V16.3291C35.126 16.4623 34.4959 16.53 33.8639 16.531Z" fill="#092DAA"/>
    <path d="M30.7373 40.5862H40.7507V42.2414H30.7373V40.5862Z" fill="#092DAA"/>
    <path d="M18.499 40.5862H28.5124V42.2414H18.499V40.5862Z" fill="#092DAA"/>
    <path d="M32.7712 19.0298L28.5116 23.2543L26.7748 21.5318C26.6699 21.4313 26.5294 21.3757 26.3835 21.377C26.2376 21.3782 26.0981 21.4363 25.995 21.5386C25.8918 21.6408 25.8333 21.7792 25.8321 21.9239C25.8308 22.0685 25.8869 22.2079 25.9882 22.312L28.1183 24.4245C28.2226 24.528 28.3641 24.5861 28.5116 24.5861C28.6591 24.5861 28.8006 24.528 28.9049 24.4245L33.5578 19.8099C33.6109 19.759 33.6533 19.6981 33.6824 19.6308C33.7116 19.5635 33.7269 19.4911 33.7276 19.4178C33.7282 19.3446 33.7141 19.2719 33.6862 19.2041C33.6582 19.1363 33.6169 19.0747 33.5647 19.0229C33.5124 18.9711 33.4503 18.9302 33.382 18.9024C33.3136 18.8747 33.2403 18.8607 33.1665 18.8613C33.0926 18.862 33.0196 18.8772 32.9517 18.9061C32.8839 18.935 32.8225 18.9771 32.7712 19.0298Z" fill="white"/>
    <path d="M40.8725 30.9641C40.8263 31.2178 40.7249 31.4584 40.5754 31.6693C40.4259 31.8801 40.2319 32.0561 40.0069 32.1851L36.8359 33.9208L37.0818 34.4085L40.0085 32.7368C40.3163 32.5625 40.5636 32.2998 40.7178 31.9834C40.872 31.6669 40.926 31.3116 40.8725 30.9641Z" fill="#9CB8F8"/>
    <path d="M18.3771 30.9641C18.4233 31.2178 18.5246 31.4584 18.6741 31.6693C18.8236 31.8801 19.0176 32.0561 19.2427 32.1851L22.4136 33.9208L22.1705 34.4069L19.2438 32.7351C18.9358 32.5614 18.6881 32.2991 18.5334 31.983C18.3787 31.6668 18.3242 31.3116 18.3771 30.9641Z" fill="#9CB8F8"/>
</svg>

<svg width="59" height="58" fill="none" xmlns="http://www.w3.org/2000/svg"><rect x=".5" width="58" height="58" rx="8" fill="#F7F9FC"/><path d="m24.645 32.041-3.804-2.213a1.682 1.682 0 0 0-2.323.684c-.004.007-.006.015-.009.023l-1.577-5.825a1.72 1.72 0 0 0-.735-1.028 1.746 1.746 0 0 0-1.244-.254 1.676 1.676 0 0 0-1.08.752 1.646 1.646 0 0 0-.192 1.294l2.415 8.933c.116.43.36.814.7 1.103l2.595 2.207a2.207 2.207 0 0 1 .777 1.678v1.191h6.675v-4.738c0-.77-.202-1.526-.588-2.194a4.431 4.431 0 0 0-1.61-1.613ZM44.297 23.428a1.745 1.745 0 0 0-1.244.254 1.72 1.72 0 0 0-.736 1.027l-1.576 5.826c-.004-.008-.005-.016-.01-.023a1.659 1.659 0 0 0-1.013-.836 1.686 1.686 0 0 0-1.31.152l-3.803 2.213c-.67.39-1.224.946-1.61 1.614a4.387 4.387 0 0 0-.589 2.193v4.738h6.676v-1.191a2.19 2.19 0 0 1 .779-1.678l2.594-2.207c.34-.289.584-.674.7-1.103l2.413-8.932a1.642 1.642 0 0 0-.653-1.782 1.678 1.678 0 0 0-.618-.265Z" fill="#E6ECFF"/><path d="M30.737 40.586V45h10.014v-4.414H30.737ZM18.499 40.586V45h10.013v-4.414H18.5ZM37.97 13v6.952c-.001 2.4-.66 4.755-1.905 6.813a13.312 13.312 0 0 1-5.166 4.872l-1.274.673-1.274-.673a13.311 13.311 0 0 1-5.166-4.872 13.167 13.167 0 0 1-1.905-6.813V13l.79.447a6.727 6.727 0 0 0 6.297.176L29.625 13l1.257.623a6.718 6.718 0 0 0 6.292-.176l.795-.447Z" fill="#305DFC"/><path d="M33.865 16.531a9.006 9.006 0 0 1-3.979-.931l-.26-.133-.258.128a8.962 8.962 0 0 1-5.862.733v3.624c-.002 2 .545 3.963 1.583 5.679a11.067 11.067 0 0 0 4.308 4.057l.228.12.23-.12c1.78-.94 3.27-2.342 4.307-4.057a10.947 10.947 0 0 0 1.583-5.68V16.33c-.618.133-1.248.201-1.88.202Z" fill="#0A33C1"/><path d="M33.864 16.531c-.115 0-.23-.016-.346-.02v3.44a10.935 10.935 0 0 1-1.33 5.233 11.04 11.04 0 0 1-3.676 3.976c.286.187.578.366.884.528l.228.12.23-.12c1.78-.94 3.27-2.342 4.307-4.057a10.946 10.946 0 0 0 1.583-5.68V16.33c-.618.133-1.248.201-1.88.202ZM30.737 40.586h10.014v1.655H30.737v-1.655ZM18.499 40.586h10.013v1.655H18.5v-1.655Z" fill="#092DAA"/><path d="m32.771 19.03-4.26 4.224-1.736-1.722a.558.558 0 0 0-.943.392.55.55 0 0 0 .156.388l2.13 2.112a.558.558 0 0 0 .787 0l4.653-4.614a.551.551 0 0 0-.606-.904.557.557 0 0 0-.18.124Z" fill="#fff"/><path d="M40.873 30.964a1.767 1.767 0 0 1-.866 1.221l-3.171 1.736.246.487 2.926-1.671c.308-.175.556-.437.71-.754.154-.316.208-.671.154-1.019ZM18.377 30.964a1.766 1.766 0 0 0 .866 1.221l3.17 1.736-.242.486-2.927-1.672a1.744 1.744 0 0 1-.71-.752 1.726 1.726 0 0 1-.157-1.019Z" fill="#9CB8F8"/></svg>
